X: 60
T:Puin Bracken
M:C
L:1/4
S:AB:||B
R:Reel
K:AM % no sharps or flats
e||:AAa2|geg2|e>d BA|GA B/2A/2G|AAa2|geg2|e>dBe|A2-A2|!
e>d BA|GA B/2A/2G|e>dBA|Bd BA|GA B/2A/2G|e>dBe|A2-A2:||!
e>d BA|GA B/2A/2G|e>dBA|Bd BA|GA B/2A/2G|e>dBe|A2-A2|!
% 

